X: 22633
T: Laington's
R: reel
M: 4/4
K: Amajor
cB|AFEF ABce|fece fgaf|ec~c2 fcec|~B2Bc (3dcB cB|
AF~F2 ABce|fece fgaf|ec~c2 fcec|~B2Bc A2:|
ed|ceAe ceAc|BE~E2 GBEB|ceAe ceAe|(3fga gb afed|
cA~A2 cAec|BE~E2 GBEB|A2ce a2af|ec~c2 d2cB||

